assets/symbols/mulberry/long_johns.svg

<svg height="850.394" viewBox="0 0 850.394 850.394" width="850.394" xmlns="http://www.w3.org/2000/svg"><g fill="#a3d9ff"><path d="m302.71 725.4h32.05v48.569h-32.05zm0 0v48.569h-26.62s-1.27-19.2-3.27-48.569zm240.08-.03h29.89c-2 29.37-3.27 48.57-3.27 48.57h-26.62zm-32.05 0h32.05v48.57h-32.05zm-226.51-650.55 159.15-.03 36.93-.01h37.49l43.46-.01s4.03 17.16 9.17 42.17l-1.3.27h-146.39v.05h-146.38l-1.3-.27c5.14-25.01 9.17-42.17 9.17-42.17z"/><path d="m510.74 725.37v48.57h-32.59s-15.61-259.221-17.931-291.721c-4.149-58.33-1.39-158.69-37.77-160.89-.41-.03-.82-.04-1.23-.04l1.09.04c-35.83.06-32.83 101.98-37.03 160.92-2.32 32.51-17.93 291.72-17.93 291.72h-32.59v-48.569h-61.94c-3.56-52.25-9.44-136.681-14.66-202.41-8.15-102.67-4.89-250.98-4.89-250.98 0-41.68 12.66-110.68 21.79-155.02l1.3.27h146.38v-.05h146.39l1.3-.27c9.141 44.34 21.801 113.35 21.801 155.03 0 0 3.26 148.31-4.891 250.99-5.22 65.73-11.1 150.16-14.66 202.41z"/></g><g fill="none"><g stroke="#231f20" stroke-width="21"><path d="m271.24 725.4h92.52m-87.4-608.14h146.4m-95.06-42.44v35.92m37.48-35.92v33.68m36.94-33.68v33.68m-99.41 616.9v48.57m32.05-48.57v48.57m87.55-452.64c-35.83.06-32.83 101.98-37.03 160.92-2.32 32.51-17.93 291.72-17.93 291.72h-91.26s-1.27-19.2-3.27-48.569c-3.56-52.25-9.44-136.681-14.66-202.41-8.15-102.67-4.89-250.98-4.89-250.98 0-41.68 12.66-110.68 21.79-155.02 5.14-25.01 9.17-42.17 9.17-42.17l159.15-.03 36.93-.01h37.49l43.46-.01s4.03 17.16 9.17 42.17c9.141 44.34 21.801 113.35 21.801 155.03 0 0 3.26 148.31-4.891 250.99-5.22 65.73-11.1 150.16-14.66 202.41-2 29.37-3.27 48.57-3.27 48.57h-91.26s-15.61-259.221-17.931-291.721c-4.149-58.33-1.39-158.69-37.77-160.89-.41-.03-.82-.04-1.23-.04zm151.95 404.04h-92.52m87.39-608.16h-146.39m95.06-42.44v35.93m-37.49-35.93v33.69m-36.93-33.69v33.69m99.41 616.91v48.57m-32.05-48.57v48.57"/><path d="m472.21 284.96-26.85 36.35-22.91.02h-.14l-21.57.02-26.86-36.36"/></g><path d="m0 0h850.394v850.394h-850.394z"/></g></svg>

<svg xmlns="http://www.w3.org/2000/svg" width="850.394" height="850.394" viewBox="0 0 850.394 850.394" overflow="visible"><g fill="#a3d9ff"><path d="M302.71 725.4h32.05v48.569h-32.05zM302.71 725.4v48.569h-26.62s-1.27-19.2-3.27-48.569h29.89zM542.79 725.37h29.89c-2 29.37-3.27 48.57-3.27 48.57h-26.62v-48.57zM510.74 725.37h32.05v48.57h-32.05zM284.23 74.82l159.15-.03 36.93-.01h37.49l43.46-.01s4.03 17.16 9.17 42.17l-1.3.27H422.74v.05H276.36l-1.3-.27c5.14-25.01 9.17-42.17 9.17-42.17z"/><path d="M510.74 725.37v48.57h-32.59s-15.61-259.221-17.931-291.721c-4.149-58.33-1.39-158.69-37.77-160.89-.41-.03-.82-.04-1.23-.04l1.09.04c-35.83.06-32.83 101.98-37.03 160.92-2.32 32.51-17.93 291.72-17.93 291.72h-32.59V725.4h-61.94c-3.56-52.25-9.44-136.681-14.66-202.41-8.15-102.67-4.89-250.98-4.89-250.98 0-41.68 12.66-110.68 21.79-155.02l1.3.27h146.38v-.05h146.39l1.3-.27c9.141 44.34 21.801 113.35 21.801 155.03 0 0 3.26 148.31-4.891 250.99-5.22 65.73-11.1 150.16-14.66 202.41H510.74z"/></g><g fill="none" stroke="#231f20" stroke-width="21"><path d="M271.24 725.4h92.52M276.36 117.26h146.4M327.7 74.82v35.92M365.18 74.82v33.68M402.12 74.82v33.68M302.71 725.4v48.57M334.76 725.4v48.57M422.31 321.33c-35.83.06-32.83 101.98-37.03 160.92-2.32 32.51-17.93 291.72-17.93 291.72h-91.26s-1.27-19.2-3.27-48.569c-3.56-52.25-9.44-136.681-14.66-202.41-8.15-102.67-4.89-250.98-4.89-250.98 0-41.68 12.66-110.68 21.79-155.02 5.14-25.01 9.17-42.17 9.17-42.17l159.15-.03 36.93-.01h37.49l43.46-.01s4.03 17.16 9.17 42.17c9.141 44.34 21.801 113.35 21.801 155.03 0 0 3.26 148.31-4.891 250.99-5.22 65.73-11.1 150.16-14.66 202.41-2 29.37-3.27 48.57-3.27 48.57h-91.26S462.54 514.72 460.219 482.22c-4.149-58.33-1.39-158.69-37.77-160.89-.41-.03-.82-.04-1.23-.04l1.091.04M574.26 725.37h-92.52M569.13 117.21H422.74M517.8 74.77v35.93M480.31 74.77v33.69M443.38 74.77V108.46M542.79 725.37v48.57M510.74 725.37v48.57"/><path d="M472.21 284.96l-26.85 36.35-22.91.02h-.14l-21.57.02-26.86-36.36"/></g><path fill="none" d="M0 0h850.394v850.394H0z"/></svg>
